svgs/vi_music.svg

<svg xmlns="http://www.w3.org/2000/svg" viewBox="0 0 192 192"><path fill="none" stroke="#000" stroke-linecap="round" stroke-linejoin="round" stroke-width="8" d="M79.778 99.82a424.467 424.467 0 0 0-54.912-54.325q-11.603-8.752-.776-16.168l12.595-7.373a18.049 18.049 0 0 1 24.545 2.674 344.956 344.956 0 0 1 45.12 71.916l-1.424-75.666a11.672 11.672 0 0 1 12.251-3.967 98.733 98.733 0 0 0 48.916 15.392q7.334 0 7.032 7.89l-.559 28.671a5.726 5.726 0 0 1-3.327 5.127 5.74 5.74 0 0 1-3.146.48 108.855 108.855 0 0 1-46.414-12.031l.171 41.39v32.939a37.342 37.342 0 0 1-7.106 23.304 37.378 37.378 0 0 1-44.311 12.656c-35.976-14.144-28.47-68.252 11.345-72.909Z"/><path fill="none" stroke="#000" stroke-linecap="round" stroke-linejoin="round" stroke-width="8" d="M57.951 137.244q8.411-2.587 21.526 12.848c12.898 13.71-4.098 22.635-13.329 11.598q-13.244-14.013-8.197-24.446Z"/></svg>

<svg
    xmlns="http://www.w3.org/2000/svg"
    viewBox="0 0 192 192"
    id="vector">
    <path
        id="path"
        d="M 79.778 99.82 C 63.164 80.081 44.784 61.898 24.866 45.495 Q 13.263 36.743 24.09 29.327 L 36.685 21.954 C 40.35 19.2 44.929 17.943 49.487 18.439 C 54.044 18.935 58.246 21.149 61.23 24.628 C 79.175 46.652 94.329 70.807 106.35 96.544 L 104.926 20.878 C 106.353 19.088 108.276 17.757 110.454 17.051 C 112.633 16.346 114.971 16.297 117.177 16.911 C 131.84 26.26 148.717 31.57 166.093 32.303 Q 173.427 32.303 173.125 40.193 L 172.566 68.864 C 172.552 69.945 172.233 71.001 171.644 71.908 C 171.055 72.815 170.221 73.538 169.239 73.991 C 168.257 74.444 167.166 74.611 166.093 74.471 C 149.92 73.96 134.062 69.85 119.679 62.44 L 119.85 103.83 L 119.85 136.769 C 120.154 145.111 117.651 153.319 112.744 160.073 C 107.837 166.828 100.803 171.747 92.773 174.041 C 84.742 176.334 76.17 175.872 68.433 172.729 C 32.457 158.585 39.963 104.477 79.778 99.82 Z"
        fill="none"
        stroke="#000000"
        stroke-width="8"
        stroke-linecap="round"
        stroke-linejoin="round"/>
    <path
        id="path_1"
        d="M 57.951 137.244 Q 66.362 134.657 79.477 150.092 C 92.375 163.802 75.379 172.727 66.148 161.69 Q 52.904 147.677 57.951 137.244 Z"
        fill="none"
        stroke="#000000"
        stroke-width="8"
        stroke-linecap="round"
        stroke-linejoin="round"/>
</svg>
